public/icons/dark/wordpress.darkmode.svg

<svg width="192" height="192" viewBox="0 0 192 192" fill="none" xmlns="http://www.w3.org/2000/svg">
<g clip-path="url(#clip0_468_2353)">
<mask id="mask0_468_2353" style="mask-type:luminance" maskUnits="userSpaceOnUse" x="0" y="0" width="192" height="192">
<path d="M192 0H0V192H192V0Z" fill="white"/>
</mask>
<g mask="url(#mask0_468_2353)">
<mask id="mask1_468_2353" style="mask-type:luminance" maskUnits="userSpaceOnUse" x="0" y="0" width="192" height="192">
<path d="M192 0H0V192H192V0Z" fill="white"/>
</mask>
<g mask="url(#mask1_468_2353)">
<path d="M96.46 24.4609C56.76 24.4609 24.46 56.7609 24.46 96.4609C24.46 136.161 56.76 168.461 96.46 168.461C136.16 168.461 168.46 136.161 168.46 96.4609C168.46 56.7609 136.16 24.4609 96.46 24.4609ZM31.73 96.4609C31.73 87.0709 33.74 78.1709 37.34 70.1209L68.22 154.721C46.62 144.231 31.74 122.081 31.74 96.4609M96.47 161.201C90.12 161.201 83.98 160.271 78.18 158.561L97.6 102.121L117.5 156.631C117.63 156.951 117.79 157.241 117.96 157.521C111.23 159.891 104 161.191 96.46 161.191M105.38 66.1009C109.28 65.9009 112.79 65.4909 112.79 65.4909C116.28 65.0809 115.87 59.9509 112.38 60.1609C112.38 60.1609 101.89 60.9809 95.13 60.9809C88.77 60.9809 78.08 60.1609 78.08 60.1609C74.59 59.9609 74.18 65.2909 77.67 65.4909C77.67 65.4909 80.97 65.9009 84.46 66.1009L94.54 93.7309L80.37 136.221L56.8 66.1009C60.7 65.9009 64.21 65.4909 64.21 65.4909C67.7 65.0809 67.28 59.9509 63.8 60.1609C63.8 60.1609 53.32 60.9809 46.55 60.9809C45.34 60.9809 43.9 60.9509 42.38 60.9009C53.95 43.3309 73.85 31.7209 96.47 31.7209C113.32 31.7209 128.67 38.1609 140.18 48.7209C139.9 48.7009 139.63 48.6709 139.34 48.6709C132.98 48.6709 128.47 54.2109 128.47 60.1609C128.47 65.4909 131.55 70.0109 134.83 75.3409C137.29 79.6509 140.17 85.1909 140.17 93.1909C140.17 98.7309 138.04 105.161 135.24 114.121L128.78 135.691L105.39 66.1009H105.38ZM153.26 65.4009C158.31 74.6209 161.19 85.2009 161.19 96.4609C161.19 120.341 148.25 141.191 129 152.411L148.77 95.2409C152.46 86.0009 153.69 78.6209 153.69 72.0509C153.69 69.6709 153.53 67.4509 153.25 65.3909" fill="white"/>
</g>
</g>
</g>
<defs>
<clipPath id="clip0_468_2353">
<rect width="192" height="192" fill="white"/>
</clipPath>
</defs>
</svg>

<?xml version="1.0" encoding="UTF-8"?><svg id="icons" xmlns="http://www.w3.org/2000/svg" xmlns:xlink="http://www.w3.org/1999/xlink" viewBox="0 0 192 192"><defs><style>.cls-1{fill:none;}.cls-2{clip-path:url(#clippath);}.cls-3{fill:#4d4744;}.cls-4{clip-path:url(#clippath-1);}</style><clipPath id="clippath"><rect class="cls-1" y="0" width="192" height="192"/></clipPath><clipPath id="clippath-1"><rect class="cls-1" y="0" width="192" height="192"/></clipPath></defs><g class="cls-2"><g class="cls-4"><path class="cls-3" d="M96.46,24.46c-39.7,0-72,32.3-72,72s32.3,72,72,72,72-32.3,72-72S136.16,24.46,96.46,24.46M31.73,96.46c0-9.39,2.01-18.29,5.61-26.34l30.88,84.6c-21.6-10.49-36.48-32.64-36.48-58.26m64.73,64.74c-6.35,0-12.49-.93-18.29-2.64l19.42-56.44,19.9,54.51c.13,.32,.29,.61,.46,.89-6.73,2.37-13.96,3.67-21.5,3.67m8.92-95.09c3.9-.2,7.41-.61,7.41-.61,3.49-.41,3.08-5.54-.41-5.33,0,0-10.49,.82-17.25,.82-6.36,0-17.05-.82-17.05-.82-3.49-.2-3.9,5.13-.41,5.33,0,0,3.3,.41,6.79,.61l10.08,27.63-14.17,42.49-23.57-70.12c3.9-.2,7.41-.61,7.41-.61,3.49-.41,3.07-5.54-.41-5.33,0,0-10.48,.82-17.25,.82-1.21,0-2.65-.03-4.17-.08,11.57-17.57,31.47-29.18,54.09-29.18,16.85,0,32.2,6.44,43.71,17-.28-.02-.55-.05-.84-.05-6.36,0-10.87,5.54-10.87,11.49,0,5.33,3.08,9.85,6.36,15.18,2.46,4.31,5.34,9.85,5.34,17.85,0,5.54-2.13,11.97-4.93,20.93l-6.46,21.57-23.39-69.59Zm47.88-.7c5.05,9.22,7.93,19.8,7.93,31.06,0,23.88-12.94,44.73-32.19,55.95l19.77-57.17c3.69-9.24,4.92-16.62,4.92-23.19,0-2.38-.16-4.6-.44-6.66"/></g></g></svg>
